src/images/svg/symbols/markets-stocks-and-indices/american-stocks/stocks-boeing.svg

<svg width="32" height="32" viewBox="0 0 32 32" fill="none" xmlns="http://www.w3.org/2000/svg">
<path d="M0 16C0 7.16344 7.16344 0 16 0C24.8366 0 32 7.16344 32 16C32 24.8366 24.8366 32 16 32C7.16344 32 0 24.8366 0 16Z" fill="#0033A1"/>
<path d="M17.155 18.0076C17.8526 16.5096 17.9898 14.8111 17.5417 13.2206C17.0935 11.6301 16.0897 10.2531 14.7127 9.33968C15.8191 8.20266 17.0173 7.07584 18.2818 6C16.8065 6.87706 15.4064 7.87472 14.0957 8.98277C12.673 8.24088 11.0362 8.01774 9.46681 8.35171C7.89739 8.68567 6.49331 9.55587 5.49589 10.8128C4.49847 12.0696 3.97 13.6347 4.00132 15.239C4.03263 16.8432 4.62177 18.3865 5.66748 19.6035C4.34691 22.4639 4.13786 24.7583 5.27998 25.5333C6.52917 26.3644 9.24171 24.8552 10.8886 22.4027C10.8886 22.4027 8.36982 24.6716 6.98806 24.1515C6.13657 23.8303 6.13657 22.525 6.8351 20.6589C8.15858 21.6298 9.78472 22.0975 11.4218 21.9779C13.0589 21.8582 14.5998 21.1593 15.7681 20.0063L16.0128 20.4651C19.0211 20.2204 28 19.9808 28 19.9808C27.9796 19.5576 22.0345 19.9655 17.155 18.0076ZM4.82619 15.0962C4.82728 14.0799 5.08318 13.0801 5.57049 12.1883C6.0578 11.2965 6.76096 10.5411 7.61564 9.9913C8.47032 9.44146 9.44923 9.11472 10.4628 9.04097C11.4764 8.96722 12.4923 9.1488 13.4176 9.56912C10.4371 12.1761 7.94859 15.2967 6.07029 18.7826C5.26082 17.7244 4.82347 16.4285 4.82619 15.0962ZM10.8988 21.1688C9.53546 21.1714 8.21124 20.7132 7.14102 19.8686C8.34433 17.1561 10.7917 13.5156 14.1314 9.95663C15.3859 10.7466 16.3081 11.9681 16.7242 13.391C17.1402 14.8139 17.0214 16.3399 16.3902 17.6812C15.3361 17.2082 14.3624 16.5734 13.5043 15.7998L15.3347 19.2364C14.768 19.8462 14.0815 20.3326 13.3183 20.6651C12.555 20.9976 11.7313 21.1691 10.8988 21.1688Z" fill="white"/>
</svg>

<svg width="32" height="32" fill="none" xmlns="http://www.w3.org/2000/svg"><path d="M0 16C0 7.163 7.163 0 16 0s16 7.163 16 16-7.163 16-16 16S0 24.837 0 16Z" fill="#0033A1"/><path d="M17.155 18.008a6.904 6.904 0 0 0-2.442-8.668A52.178 52.178 0 0 1 18.282 6a31.103 31.103 0 0 0-4.186 2.983 6.904 6.904 0 0 0-8.429 10.62c-1.32 2.86-1.53 5.155-.387 5.93 1.25.831 3.962-.678 5.609-3.13 0 0-2.52 2.269-3.9 1.748-.852-.32-.852-1.626-.154-3.492a6.904 6.904 0 0 0 8.933-.653l.245.46C19.02 20.22 28 19.98 28 19.98c-.02-.423-5.965-.016-10.845-1.973ZM4.826 15.096a6.078 6.078 0 0 1 8.592-5.527 33.1 33.1 0 0 0-7.348 9.214 6.047 6.047 0 0 1-1.244-3.687ZM10.9 21.17a6.047 6.047 0 0 1-3.758-1.3c1.203-2.713 3.65-6.353 6.99-9.912a6.073 6.073 0 0 1 2.26 7.724 11.091 11.091 0 0 1-2.887-1.881l1.83 3.436A6.053 6.053 0 0 1 10.9 21.17Z" fill="#fff"/></svg>
